img/arrow-86.svg

<svg fill="none" height="14" viewBox="0 0 17 14" width="17" xmlns="http://www.w3.org/2000/svg"><path d="m15.8717 7.59866c.3306-.33063.3306-.86669 0-1.19732l-5.3879-5.3879c-.3307-.330628-.86672-.330628-1.19735 0-.33063.33063-.33063.86668 0 1.19731l4.78925 4.78925-4.78925 4.7892c-.33063.3307-.33063.8667 0 1.1974.33063.3306.86665.3306 1.19735 0zm-14.14473-1.44529c-.46758 0-.846625.37905-.846625.84663s.379045.84663.846625.84663zm13.54603 0h-13.54603v1.69326h13.54603z" fill="#109c7b"/></svg>

<svg width="17" height="14" viewBox="0 0 17 14" fill="none" xmlns="http://www.w3.org/2000/svg">
<path d="M15.8717 7.59866C16.2023 7.26803 16.2023 6.73197 15.8717 6.40134L10.4838 1.01344C10.1531 0.682812 9.61708 0.682812 9.28645 1.01344C8.95582 1.34407 8.95582 1.88012 9.28645 2.21075L14.0757 7L9.28645 11.7892C8.95582 12.1199 8.95582 12.6559 9.28645 12.9866C9.61708 13.3172 10.1531 13.3172 10.4838 12.9866L15.8717 7.59866ZM1.72697 6.15337C1.25939 6.15337 0.880345 6.53242 0.880345 7C0.880345 7.46758 1.25939 7.84663 1.72697 7.84663V6.15337ZM15.273 6.15337L1.72697 6.15337V7.84663L15.273 7.84663V6.15337Z" fill="#109C7B"/>
</svg>
